X:155
T: EINST WAR ICH SO GLUECKLICH
N: E0737A
O: Europa, Mitteleuropa, Deutschland
R: Liebes - Lied, Leid, Klage, Tod
M: 3/4
L: 1/8
K: C
CD | E2E3E | DEF2
DE | F3GA2 | G4
EF | G3EAG | GFD2
G2 | B3AGF | E4
EF | G3EAG | GFD2
G2 | B3AGF | E4

@@@ Tune index: 4468
